src/components/Token/assets/uni.svg

<svg width="24" height="24" viewBox="0 0 24 24" fill="none" xmlns="http://www.w3.org/2000/svg">
<g clip-path="url(#clip0)">
<path d="M9.27408 6.32352C9.07444 6.29411 9.06493 6.2843 9.16 6.2745C9.34063 6.24509 9.75893 6.2843 10.0536 6.35293C10.7381 6.5196 11.3561 6.95097 12.0121 7.70587L12.1832 7.91175L12.4304 7.87254C13.4856 7.69607 14.5694 7.83332 15.4725 8.2647C15.7197 8.38234 16.1095 8.61764 16.157 8.67646C16.176 8.69607 16.2046 8.82352 16.2236 8.95097C16.2901 9.41176 16.2616 9.75489 16.119 10.0196C16.0429 10.1667 16.0429 10.2059 16.0905 10.3333C16.1285 10.4314 16.2426 10.5 16.3472 10.5C16.5753 10.5 16.813 10.1274 16.9271 9.60783L16.9746 9.40195L17.0602 9.49999C17.545 10.0588 17.9253 10.8333 17.9823 11.3823L18.0014 11.5294L17.9158 11.402C17.7732 11.1765 17.6401 11.0294 17.4595 10.902C17.1362 10.6765 16.794 10.6078 15.8908 10.5588C15.0733 10.5098 14.6074 10.4412 14.1511 10.2843C13.3715 10.0196 12.9722 9.67646 12.0501 8.41176C11.6413 7.85293 11.3846 7.54901 11.1279 7.29411C10.567 6.73528 10.0061 6.44116 9.27408 6.32352Z" fill="#FF007A"/>
<path d="M16.3562 7.56864C16.3753 7.19609 16.4228 6.95099 16.5274 6.7255C16.5654 6.63727 16.6034 6.55884 16.6129 6.55884C16.6224 6.55884 16.6034 6.62747 16.5749 6.7059C16.4988 6.92158 16.4893 7.2255 16.5369 7.56864C16.6034 8.00982 16.6319 8.06864 17.0883 8.54904C17.2974 8.77453 17.5446 9.05884 17.6397 9.17649L17.8013 9.39217L17.6397 9.23531C17.44 9.03923 16.9837 8.66668 16.8791 8.61766C16.8126 8.57845 16.8031 8.57845 16.7555 8.62747C16.7175 8.66668 16.708 8.72551 16.708 9.00982C16.6985 9.451 16.6415 9.72551 16.4988 10.0098C16.4228 10.1569 16.4133 10.1275 16.4798 9.9608C16.5274 9.83335 16.5369 9.77453 16.5369 9.35296C16.5369 8.50002 16.4418 8.29413 15.8619 7.951C15.7193 7.86276 15.4721 7.73531 15.3295 7.66668C15.1774 7.59805 15.0633 7.53923 15.0728 7.53923C15.0918 7.51962 15.6527 7.68629 15.8714 7.78433C16.2041 7.92158 16.2612 7.93139 16.2992 7.92158C16.3277 7.89217 16.3467 7.81374 16.3562 7.56864Z" fill="#FF007A"/>
<path d="M9.66348 9.02942C9.2642 8.4608 9.00751 7.57844 9.06455 6.92158L9.08357 6.7157L9.17863 6.73531C9.34976 6.76472 9.64447 6.88237 9.78707 6.9706C10.1673 7.20589 10.3385 7.52942 10.5001 8.33335C10.5476 8.56864 10.6142 8.84315 10.6427 8.93138C10.6902 9.07844 10.8709 9.42158 11.023 9.63727C11.1275 9.79413 11.061 9.87256 10.8233 9.85295C10.4621 9.81374 9.97721 9.4706 9.66348 9.02942Z" fill="#FF007A"/>
<path d="M15.8721 13.2941C13.9897 12.5098 13.3242 11.8334 13.3242 10.6863C13.3242 10.5196 13.3337 10.3824 13.3337 10.3824C13.3432 10.3824 13.4098 10.4412 13.4953 10.5098C13.8756 10.8236 14.3034 10.9608 15.4918 11.1373C16.1858 11.2451 16.5851 11.3236 16.9463 11.451C18.0967 11.8432 18.8097 12.6471 18.9808 13.7353C19.0283 14.0491 18.9998 14.6471 18.9237 14.9608C18.8572 15.2059 18.6671 15.6569 18.6195 15.6667C18.61 15.6667 18.591 15.6177 18.591 15.5392C18.572 15.1275 18.3723 14.7353 18.0396 14.4314C17.6403 14.0785 17.127 13.8138 15.8721 13.2941Z" fill="#FF007A"/>
<path d="M14.5413 13.6176C14.5223 13.4706 14.4747 13.2843 14.4462 13.2059L14.3987 13.0588L14.4842 13.1667C14.6078 13.3137 14.7029 13.4902 14.7885 13.7353C14.855 13.9216 14.855 13.9804 14.855 14.2843C14.855 14.5784 14.8455 14.647 14.7885 14.8137C14.6934 15.0784 14.5793 15.2647 14.3892 15.4706C14.0469 15.8333 13.6001 16.0294 12.9631 16.1176C12.8491 16.1274 12.5258 16.1568 12.2406 16.1765C11.5276 16.2157 11.0523 16.2941 10.6245 16.451C10.5674 16.4706 10.5104 16.4902 10.5009 16.4804C10.4819 16.4608 10.7766 16.2843 11.0142 16.1667C11.347 16 11.6892 15.9118 12.4403 15.7745C12.811 15.7157 13.1913 15.6372 13.2864 15.598C14.2276 15.2941 14.6934 14.5392 14.5413 13.6176Z" fill="#FF007A"/>
<path d="M15.407 15.196C15.1598 14.6372 15.1028 14.1078 15.2359 13.6078C15.2549 13.5588 15.2739 13.5098 15.2929 13.5098C15.3119 13.5098 15.369 13.5392 15.426 13.5784C15.5401 13.6568 15.7778 13.7941 16.3862 14.1372C17.1563 14.5686 17.5936 14.9019 17.8978 15.2843C18.164 15.6176 18.3256 16 18.4017 16.4706C18.4492 16.7353 18.4207 17.3725 18.3541 17.6372C18.145 18.4706 17.6696 19.1372 16.9756 19.5196C16.8711 19.5784 16.7855 19.6176 16.776 19.6176C16.7665 19.6176 16.8045 19.5196 16.8616 19.4019C17.0897 18.9019 17.1182 18.4215 16.9471 17.8823C16.8425 17.549 16.6239 17.147 16.1866 16.4706C15.6637 15.6862 15.5401 15.4804 15.407 15.196Z" fill="#FF007A"/>
<path d="M8.32464 18.196C9.02815 17.5882 9.89327 17.1568 10.6918 17.0196C11.0341 16.9607 11.6045 16.9803 11.9182 17.0686C12.4221 17.2058 12.8784 17.4999 13.1161 17.8627C13.3443 18.2156 13.4488 18.5196 13.5534 19.196C13.5914 19.4607 13.639 19.7352 13.6485 19.7941C13.7245 20.147 13.8766 20.4215 14.0668 20.5686C14.3615 20.7941 14.8749 20.8039 15.3787 20.6078C15.4643 20.5784 15.5403 20.549 15.5403 20.5588C15.5593 20.5784 15.3027 20.7549 15.1315 20.8431C14.8939 20.9705 14.7037 21.0098 14.447 21.0098C13.9907 21.0098 13.6009 20.7647 13.2872 20.2745C13.2207 20.1764 13.0876 19.8921 12.9735 19.6274C12.6407 18.8333 12.4696 18.598 12.0798 18.3333C11.7376 18.1078 11.3003 18.0588 10.9675 18.2254C10.5302 18.4411 10.4161 19.0196 10.7204 19.3725C10.844 19.5196 11.0721 19.6372 11.2623 19.6666C11.614 19.7156 11.9182 19.4313 11.9182 19.0686C11.9182 18.8333 11.8327 18.696 11.6045 18.5882C11.3003 18.4509 10.9675 18.6078 10.9771 18.9117C10.9771 19.0392 11.0341 19.1176 11.1577 19.1764C11.2337 19.2156 11.2337 19.2156 11.1767 19.2058C10.901 19.147 10.8344 18.7941 11.0531 18.5686C11.3193 18.2941 11.8802 18.4117 12.0703 18.7941C12.1464 18.9509 12.1559 19.2647 12.0893 19.4607C11.9277 19.8921 11.4714 20.1176 11.0056 19.9902C10.6918 19.9019 10.5587 19.8137 10.1785 19.4117C9.513 18.7058 9.25631 18.5686 8.30563 18.4215L8.125 18.3921L8.32464 18.196Z" fill="#FF007A"/>
<path fill-rule="evenodd" clip-rule="evenodd" d="M3.32366 2.42157C5.53875 5.19608 8.9517 9.5098 9.12282 9.7451C9.26543 9.94118 9.20838 10.1275 8.97071 10.2647C8.83762 10.3431 8.56192 10.4216 8.42882 10.4216C8.27672 10.4216 8.09609 10.3431 7.9725 10.2157C7.88694 10.1275 7.51617 9.56863 6.67957 8.22549C6.04261 7.19608 5.50072 6.34314 5.49121 6.33333C5.45319 6.31373 5.45319 6.31373 6.61302 8.45098C7.34505 9.79412 7.58272 10.2745 7.58272 10.3333C7.58272 10.4608 7.54469 10.5294 7.39258 10.7059C7.1359 11 7.02181 11.3333 6.93625 12.0294C6.84118 12.8039 6.5845 13.3529 5.85247 14.2843C5.42467 14.8333 5.35812 14.9314 5.25354 15.1569C5.12045 15.4314 5.08242 15.5882 5.06341 15.9412C5.04439 16.3137 5.08242 16.549 5.18699 16.902C5.28206 17.2157 5.38664 17.4216 5.64332 17.8235C5.86198 18.1765 5.99508 18.4412 5.99508 18.5392C5.99508 18.6176 6.01409 18.6176 6.35633 18.5392C7.17392 18.3431 7.84891 18.0098 8.21967 17.598C8.44784 17.3431 8.50488 17.2059 8.50488 16.8529C8.50488 16.6275 8.49537 16.5784 8.43833 16.4412C8.34326 16.2255 8.16263 16.049 7.77285 15.7745C7.25948 15.4118 7.04083 15.1176 6.98379 14.7255C6.93625 14.3922 6.99329 14.1667 7.2785 13.549C7.57321 12.9118 7.64926 12.6471 7.6968 12C7.72532 11.5882 7.77285 11.4216 7.88694 11.2941C8.01052 11.1569 8.1151 11.1078 8.40981 11.0686C8.89466 11 9.20839 10.8725 9.45556 10.6275C9.67422 10.4216 9.76929 10.2157 9.7788 9.91176L9.7883 9.68628L9.66471 9.54902C9.21789 9.01961 3.02894 2 3.00042 2C2.99092 2 3.14303 2.18627 3.32366 2.42157ZM6.24225 16.3627C6.34683 16.1765 6.28979 15.9412 6.11866 15.8235C5.95705 15.7157 5.70987 15.7647 5.70987 15.9118C5.70987 15.951 5.72888 15.9902 5.78592 16.0098C5.87149 16.0588 5.88099 16.1078 5.81445 16.2157C5.7479 16.3235 5.7479 16.4216 5.83346 16.4902C5.96655 16.598 6.14718 16.5392 6.24225 16.3627Z" fill="#FF007A"/>
<path fill-rule="evenodd" clip-rule="evenodd" d="M10.0913 11.2059C9.86318 11.2745 9.64452 11.5294 9.57798 11.7843C9.53995 11.9412 9.55896 12.2255 9.62551 12.3138C9.73008 12.451 9.82515 12.4902 10.0913 12.4902C10.6142 12.4902 11.061 12.2549 11.1086 11.9706C11.1561 11.7353 10.9565 11.4118 10.6808 11.2647C10.5382 11.1863 10.2435 11.1569 10.0913 11.2059ZM10.6998 11.6961C10.7758 11.5785 10.7473 11.451 10.6047 11.3628C10.348 11.1961 9.95825 11.3334 9.95825 11.5883C9.95825 11.7157 10.1579 11.853 10.348 11.853C10.4716 11.853 10.6427 11.7745 10.6998 11.6961Z" fill="#FF007A"/>
</g>
<defs>
<clipPath id="clip0">
<rect width="16" height="19" fill="white" transform="translate(3 2)"/>
</clipPath>
</defs>
</svg>

<svg width="24" height="24" fill="none" xmlns="http://www.w3.org/2000/svg"><g clip-path="url(#clip0)" fill="#FF007A"><path d="M9.274 6.324c-.2-.03-.21-.04-.114-.05.18-.029.599.01.894.079.684.167 1.302.598 1.958 1.353l.171.206.247-.04c1.056-.176 2.14-.039 3.043.393.247.117.636.353.684.411.019.02.048.148.067.275.066.46.038.804-.105 1.069-.076.147-.076.186-.029.313a.286.286 0 00.257.167c.228 0 .466-.373.58-.892l.048-.206.085.098c.485.559.865 1.333.922 1.882l.02.147-.086-.127a1.635 1.635 0 00-.457-.5c-.323-.225-.665-.294-1.568-.343-.818-.05-1.284-.118-1.74-.275-.78-.264-1.179-.608-2.1-1.872-.41-.56-.666-.863-.923-1.118-.561-.559-1.122-.853-1.854-.97z"/><path d="M16.356 7.569c.02-.373.067-.618.171-.843a.682.682 0 01.086-.167c.01 0-.01.068-.038.147-.076.216-.086.52-.038.863.066.44.095.5.551.98.21.226.457.51.552.627l.161.216-.161-.157c-.2-.196-.656-.568-.76-.617-.067-.04-.077-.04-.124.01-.038.039-.048.098-.048.382-.01.441-.066.716-.21 1-.075.147-.085.117-.018-.05.047-.127.057-.185.057-.607 0-.853-.095-1.059-.675-1.402a7.022 7.022 0 00-.533-.284 2.083 2.083 0 01-.256-.128c.019-.02.58.147.798.245.333.138.39.147.428.138.029-.03.048-.108.057-.353zM9.663 9.03c-.399-.57-.655-1.452-.598-2.108l.019-.206.095.02c.17.029.465.146.608.235.38.235.551.558.713 1.362.048.236.114.51.143.598.047.147.228.49.38.706.104.157.038.236-.2.216-.36-.04-.846-.382-1.16-.824zM15.872 13.294c-1.882-.784-2.548-1.46-2.548-2.608 0-.166.01-.304.01-.304.01 0 .076.06.161.128.38.314.808.45 1.997.627.694.108 1.093.187 1.454.314 1.15.392 1.864 1.196 2.035 2.284.047.314.019.912-.057 1.226-.067.245-.257.696-.305.706-.009 0-.028-.05-.028-.128-.019-.412-.219-.804-.551-1.108-.4-.352-.913-.617-2.168-1.137zM14.541 13.618a2.383 2.383 0 00-.095-.412l-.047-.147.085.108c.124.147.219.323.305.568.066.187.066.245.066.55 0 .293-.01.362-.066.529-.096.264-.21.45-.4.657-.342.362-.789.558-1.426.647-.114.01-.437.039-.722.059-.713.039-1.189.117-1.617.274-.057.02-.114.04-.123.03-.02-.02.276-.197.513-.314.333-.167.675-.255 1.426-.393.371-.058.751-.137.846-.176.942-.304 1.407-1.059 1.255-1.98z"/><path d="M15.407 15.196c-.247-.559-.304-1.088-.171-1.588.019-.05.038-.098.057-.098.019 0 .076.03.133.068.114.079.352.216.96.56.77.43 1.208.764 1.512 1.146.266.334.428.716.504 1.187.047.264.019.901-.048 1.166-.209.834-.684 1.5-1.378 1.883a1.3 1.3 0 01-.2.098c-.01 0 .029-.098.086-.216.228-.5.256-.98.085-1.52-.104-.333-.323-.735-.76-1.411-.523-.785-.647-.99-.78-1.275zM8.325 18.196c.703-.608 1.568-1.04 2.367-1.176.342-.06.912-.04 1.226.049.504.137.96.43 1.198.794.228.353.333.657.437 1.333.038.265.086.54.095.598.077.353.229.628.419.775.294.225.808.235 1.312.039.085-.03.161-.059.161-.05.02.02-.237.197-.408.285a1.313 1.313 0 01-.685.167c-.456 0-.846-.245-1.16-.736-.066-.098-.2-.382-.314-.647-.332-.794-.503-1.029-.893-1.294-.342-.225-.78-.274-1.113-.108-.437.216-.55.795-.247 1.147a.962.962 0 00.542.295c.352.049.656-.236.656-.598 0-.236-.085-.373-.313-.48-.305-.138-.638.019-.628.323 0 .127.057.206.18.264.077.04.077.04.02.03-.276-.059-.343-.412-.124-.637.266-.275.827-.157 1.017.225.076.157.086.47.02.667-.162.431-.619.657-1.084.53-.314-.09-.447-.177-.828-.58-.665-.705-.922-.842-1.872-.99l-.181-.029.2-.196z"/><path fill-rule="evenodd" clip-rule="evenodd" d="M3.324 2.422C5.539 5.196 8.952 9.51 9.123 9.745c.142.196.085.383-.152.52a1.422 1.422 0 01-.542.157.676.676 0 01-.457-.206c-.085-.088-.456-.647-1.292-1.99A127.703 127.703 0 005.49 6.332c-.038-.02-.038-.02 1.122 2.118.732 1.343.97 1.823.97 1.882 0 .128-.038.196-.19.373-.257.294-.371.627-.457 1.323-.095.775-.351 1.324-1.084 2.255-.427.55-.494.647-.598.873-.134.274-.172.431-.19.784-.02.373.018.608.123.961.095.314.2.52.456.921.219.354.352.618.352.716 0 .079.02.079.361 0 .818-.196 1.493-.53 1.864-.941.228-.255.285-.392.285-.745 0-.226-.01-.275-.067-.412-.095-.215-.275-.392-.665-.666-.514-.363-.732-.657-.79-1.05-.047-.333.01-.558.296-1.176.294-.637.37-.902.418-1.549.028-.412.076-.578.19-.706.124-.137.228-.186.523-.225.485-.069.798-.197 1.046-.442a.933.933 0 00.323-.715l.01-.226-.124-.137C9.218 9.019 3.029 2 3 2c-.01 0 .143.186.324.422zm2.918 13.94a.412.412 0 00-.123-.538c-.162-.108-.41-.06-.41.088 0 .039.02.078.077.098.085.049.095.098.028.206-.066.107-.066.206.02.274.133.108.313.05.408-.127zM10.091 11.206c-.228.069-.446.323-.513.578-.038.157-.019.441.048.53.104.137.2.176.465.176.523 0 .97-.235 1.018-.52.047-.235-.152-.558-.428-.705a.94.94 0 00-.59-.06zm.609.49c.076-.117.047-.245-.095-.333-.257-.167-.647-.03-.647.225 0 .128.2.265.39.265.124 0 .295-.079.352-.157z"/></g><defs><clipPath id="clip0"><path fill="#fff" transform="translate(3 2)" d="M0 0h16v19H0z"/></clipPath></defs></svg>
